images/3233434.svg

<?xml version="1.0" encoding="UTF-8"?>
<svg xmlns="http://www.w3.org/2000/svg" xmlns:xlink="http://www.w3.org/1999/xlink" width="300pt" height="300pt" viewBox="0 0 300 300" version="1.1">
<defs>
<g>
<symbol overflow="visible" id="glyph0-0">
<path style="stroke:none;" d="M 0.640625 2.296875 L 0.640625 -9.171875 L 7.140625 -9.171875 L 7.140625 2.296875 Z M 1.375 1.578125 L 6.421875 1.578125 L 6.421875 -8.4375 L 1.375 -8.4375 Z M 1.375 1.578125 "/>
</symbol>
<symbol overflow="visible" id="glyph0-1">
<path style="stroke:none;" d="M 1.28125 -9.484375 L 3 -9.484375 L 7.203125 -1.546875 L 7.203125 -9.484375 L 8.453125 -9.484375 L 8.453125 0 L 6.71875 0 L 2.515625 -7.921875 L 2.515625 0 L 1.28125 0 Z M 1.28125 -9.484375 "/>
</symbol>
<symbol overflow="visible" id="glyph0-2">
<path style="stroke:none;" d="M 6.953125 -9.171875 L 6.953125 -7.921875 C 6.472656 -8.148438 6.015625 -8.320312 5.578125 -8.4375 C 5.148438 -8.550781 4.734375 -8.609375 4.328125 -8.609375 C 3.628906 -8.609375 3.085938 -8.472656 2.703125 -8.203125 C 2.328125 -7.929688 2.140625 -7.546875 2.140625 -7.046875 C 2.140625 -6.628906 2.265625 -6.3125 2.515625 -6.09375 C 2.773438 -5.882812 3.253906 -5.710938 3.953125 -5.578125 L 4.734375 -5.421875 C 5.679688 -5.234375 6.382812 -4.910156 6.84375 -4.453125 C 7.300781 -3.992188 7.53125 -3.378906 7.53125 -2.609375 C 7.53125 -1.691406 7.222656 -0.992188 6.609375 -0.515625 C 5.992188 -0.046875 5.085938 0.1875 3.890625 0.1875 C 3.441406 0.1875 2.960938 0.132812 2.453125 0.03125 C 1.953125 -0.0703125 1.429688 -0.222656 0.890625 -0.421875 L 0.890625 -1.734375 C 1.410156 -1.441406 1.921875 -1.222656 2.421875 -1.078125 C 2.921875 -0.929688 3.410156 -0.859375 3.890625 -0.859375 C 4.628906 -0.859375 5.195312 -1 5.59375 -1.28125 C 5.988281 -1.570312 6.1875 -1.984375 6.1875 -2.515625 C 6.1875 -2.984375 6.039062 -3.347656 5.75 -3.609375 C 5.46875 -3.867188 5.003906 -4.066406 4.359375 -4.203125 L 3.578125 -4.359375 C 2.617188 -4.546875 1.925781 -4.84375 1.5 -5.25 C 1.070312 -5.65625 0.859375 -6.21875 0.859375 -6.9375 C 0.859375 -7.78125 1.148438 -8.441406 1.734375 -8.921875 C 2.328125 -9.410156 3.144531 -9.65625 4.1875 -9.65625 C 4.625 -9.65625 5.070312 -9.613281 5.53125 -9.53125 C 6 -9.445312 6.472656 -9.328125 6.953125 -9.171875 Z M 6.953125 -9.171875 "/>
</symbol>
<symbol overflow="visible" id="glyph0-3">
<path style="stroke:none;" d="M 5.125 -8.609375 C 4.1875 -8.609375 3.441406 -8.257812 2.890625 -7.5625 C 2.347656 -6.875 2.078125 -5.929688 2.078125 -4.734375 C 2.078125 -3.535156 2.347656 -2.585938 2.890625 -1.890625 C 3.441406 -1.203125 4.1875 -0.859375 5.125 -0.859375 C 6.050781 -0.859375 6.785156 -1.203125 7.328125 -1.890625 C 7.878906 -2.585938 8.15625 -3.535156 8.15625 -4.734375 C 8.15625 -5.929688 7.878906 -6.875 7.328125 -7.5625 C 6.785156 -8.257812 6.050781 -8.609375 5.125 -8.609375 Z M 5.125 -9.65625 C 6.445312 -9.65625 7.503906 -9.207031 8.296875 -8.3125 C 9.097656 -7.414062 9.5 -6.222656 9.5 -4.734375 C 9.5 -3.234375 9.097656 -2.035156 8.296875 -1.140625 C 7.503906 -0.253906 6.445312 0.1875 5.125 0.1875 C 3.789062 0.1875 2.722656 -0.253906 1.921875 -1.140625 C 1.128906 -2.035156 0.734375 -3.234375 0.734375 -4.734375 C 0.734375 -6.222656 1.128906 -7.414062 1.921875 -8.3125 C 2.722656 -9.207031 3.789062 -9.65625 5.125 -9.65625 Z M 5.125 -9.65625 "/>
</symbol>
</g>
</defs>
<g id="surface48181">
<rect x="0" y="0" width="300" height="300" style="fill:rgb(100%,100%,100%);fill-opacity:1;stroke:none;"/>
<path style="fill:none;stroke-width:1.2;stroke-linecap:butt;stroke-linejoin:miter;stroke:rgb(0%,0%,0%);stroke-opacity:1;stroke-miterlimit:10;" d="M 49.945312 83.96875 L 53.503906 100.03125 "/>
<path style="fill:none;stroke-width:1.2;stroke-linecap:butt;stroke-linejoin:miter;stroke:rgb(0%,0%,100%);stroke-opacity:1;stroke-miterlimit:10;" d="M 53.503906 100.03125 L 57.058594 116.09375 "/>
<path style="fill:none;stroke-width:1.2;stroke-linecap:butt;stroke-linejoin:miter;stroke:rgb(0%,0%,100%);stroke-opacity:1;stroke-miterlimit:10;" d="M 57.058594 116.09375 L 46.15625 128.414062 "/>
<path style="fill:none;stroke-width:1.2;stroke-linecap:butt;stroke-linejoin:miter;stroke:rgb(0%,0%,0%);stroke-opacity:1;stroke-miterlimit:10;" d="M 46.15625 128.414062 L 35.25 140.734375 "/>
<path style="fill:none;stroke-width:1.2;stroke-linecap:butt;stroke-linejoin:miter;stroke:rgb(0%,0%,0%);stroke-opacity:1;stroke-miterlimit:10;" d="M 87.234375 129.226562 L 72.148438 122.660156 "/>
<path style="fill:none;stroke-width:1.2;stroke-linecap:butt;stroke-linejoin:miter;stroke:rgb(0%,0%,100%);stroke-opacity:1;stroke-miterlimit:10;" d="M 72.148438 122.660156 L 57.058594 116.09375 "/>
<path style=" stroke:none;fill-rule:nonzero;fill:rgb(100%,100%,100%);fill-opacity:1;" d="M 52.058594 108.09375 L 62.058594 108.09375 L 62.058594 124.09375 L 52.058594 124.09375 Z M 52.058594 108.09375 "/>
<g style="fill:rgb(0%,0%,100%);fill-opacity:1;">
  <use xlink:href="#glyph0-1" x="52.058594" y="120.469727"/>
</g>
<path style="fill:none;stroke-width:1.2;stroke-linecap:butt;stroke-linejoin:miter;stroke:rgb(0%,0%,0%);stroke-opacity:1;stroke-miterlimit:10;" d="M 35.25 140.734375 L 51.945312 169.089844 "/>
<path style=" stroke:none;fill-rule:nonzero;fill:rgb(0%,0%,0%);fill-opacity:1;" d="M 84.070312 161.976562 L 50.6875 163.421875 L 53.199219 174.761719 Z M 84.070312 161.976562 "/>
<path style="fill:none;stroke-width:1.2;stroke-linecap:butt;stroke-linejoin:miter;stroke:rgb(0%,0%,0%);stroke-opacity:1;stroke-miterlimit:10;" d="M 84.070312 161.976562 L 87.234375 129.226562 "/>
<path style="fill:none;stroke-width:1.2;stroke-linecap:butt;stroke-linejoin:miter;stroke:rgb(0%,0%,0%);stroke-opacity:1;stroke-miterlimit:10;" d="M 84.070312 161.976562 L 77.503906 194.222656 "/>
<path style="fill:none;stroke-width:1.2;stroke-linecap:butt;stroke-linejoin:miter;stroke:rgb(0%,0%,0%);stroke-opacity:1;stroke-miterlimit:10;" d="M 115.277344 151.546875 L 84.070312 161.976562 "/>
<path style="fill:none;stroke-width:1.2;stroke-linecap:butt;stroke-linejoin:miter;stroke:rgb(0%,0%,0%);stroke-opacity:1;stroke-miterlimit:10;" d="M 77.503906 194.222656 L 102.140625 216.03125 "/>
<path style="fill:none;stroke-width:1.2;stroke-linecap:butt;stroke-linejoin:miter;stroke:rgb(0%,0%,0%);stroke-opacity:1;stroke-miterlimit:10;" d="M 102.140625 216.03125 L 133.347656 205.597656 "/>
<path style="fill:none;stroke-width:1.2;stroke-linecap:butt;stroke-linejoin:miter;stroke:rgb(0%,0%,0%);stroke-opacity:1;stroke-miterlimit:10;" d="M 133.347656 205.597656 L 136.632812 189.476562 "/>
<path style="fill:none;stroke-width:1.2;stroke-linecap:butt;stroke-linejoin:miter;stroke:rgb(0%,0%,100%);stroke-opacity:1;stroke-miterlimit:10;" d="M 136.632812 189.476562 L 139.917969 173.355469 "/>
<path style="fill:none;stroke-width:1.2;stroke-linecap:butt;stroke-linejoin:miter;stroke:rgb(0%,0%,100%);stroke-opacity:1;stroke-miterlimit:10;" d="M 139.917969 173.355469 L 127.597656 162.449219 "/>
<path style="fill:none;stroke-width:1.2;stroke-linecap:butt;stroke-linejoin:miter;stroke:rgb(0%,0%,0%);stroke-opacity:1;stroke-miterlimit:10;" d="M 127.597656 162.449219 L 115.277344 151.546875 "/>
<path style="fill:none;stroke-width:1.2;stroke-linecap:butt;stroke-linejoin:miter;stroke:rgb(0%,0%,100%);stroke-opacity:1;stroke-miterlimit:10;" d="M 139.917969 173.355469 L 155.523438 168.140625 "/>
<path style="fill:none;stroke-width:1.2;stroke-linecap:butt;stroke-linejoin:miter;stroke:rgb(80%,80%,0%);stroke-opacity:1;stroke-miterlimit:10;" d="M 155.523438 168.140625 L 171.125 162.921875 "/>
<path style=" stroke:none;fill-rule:nonzero;fill:rgb(100%,100%,100%);fill-opacity:1;" d="M 134.917969 165.355469 L 144.917969 165.355469 L 144.917969 181.355469 L 134.917969 181.355469 Z M 134.917969 165.355469 "/>
<g style="fill:rgb(0%,0%,100%);fill-opacity:1;">
  <use xlink:href="#glyph0-1" x="134.917969" y="177.731445"/>
</g>
<path style="fill:none;stroke-width:1.2;stroke-linecap:butt;stroke-linejoin:miter;stroke:rgb(80%,80%,0%);stroke-opacity:1;stroke-miterlimit:10;" d="M 174.796875 161.695312 L 169.582031 146.089844 "/>
<path style="fill:none;stroke-width:1.2;stroke-linecap:butt;stroke-linejoin:miter;stroke:rgb(100%,0%,0%);stroke-opacity:1;stroke-miterlimit:10;" d="M 169.582031 146.089844 L 164.363281 130.488281 "/>
<path style="fill:none;stroke-width:1.2;stroke-linecap:butt;stroke-linejoin:miter;stroke:rgb(80%,80%,0%);stroke-opacity:1;stroke-miterlimit:10;" d="M 167.453125 164.148438 L 162.238281 148.546875 "/>
<path style="fill:none;stroke-width:1.2;stroke-linecap:butt;stroke-linejoin:miter;stroke:rgb(100%,0%,0%);stroke-opacity:1;stroke-miterlimit:10;" d="M 162.238281 148.546875 L 157.023438 132.941406 "/>
<path style="fill:none;stroke-width:1.2;stroke-linecap:butt;stroke-linejoin:miter;stroke:rgb(80%,80%,0%);stroke-opacity:1;stroke-miterlimit:10;" d="M 167.453125 164.148438 L 172.671875 179.753906 "/>
<path style="fill:none;stroke-width:1.2;stroke-linecap:butt;stroke-linejoin:miter;stroke:rgb(100%,0%,0%);stroke-opacity:1;stroke-miterlimit:10;" d="M 172.671875 179.753906 L 177.886719 195.359375 "/>
<path style="fill:none;stroke-width:1.2;stroke-linecap:butt;stroke-linejoin:miter;stroke:rgb(80%,80%,0%);stroke-opacity:1;stroke-miterlimit:10;" d="M 174.796875 161.695312 L 180.015625 177.300781 "/>
<path style="fill:none;stroke-width:1.2;stroke-linecap:butt;stroke-linejoin:miter;stroke:rgb(100%,0%,0%);stroke-opacity:1;stroke-miterlimit:10;" d="M 180.015625 177.300781 L 185.230469 192.902344 "/>
<path style="fill:none;stroke-width:1.2;stroke-linecap:butt;stroke-linejoin:miter;stroke:rgb(80%,80%,0%);stroke-opacity:1;stroke-miterlimit:10;" d="M 171.125 162.921875 L 186.730469 157.707031 "/>
<path style="fill:none;stroke-width:1.2;stroke-linecap:butt;stroke-linejoin:miter;stroke:rgb(0%,0%,0%);stroke-opacity:1;stroke-miterlimit:10;" d="M 186.730469 157.707031 L 202.335938 152.488281 "/>
<path style=" stroke:none;fill-rule:nonzero;fill:rgb(100%,100%,100%);fill-opacity:1;" d="M 167.125 154.921875 L 176.125 154.921875 L 176.125 170.921875 L 167.125 170.921875 Z M 167.125 154.921875 "/>
<g style="fill:rgb(80%,80%,0%);fill-opacity:1;">
  <use xlink:href="#glyph0-2" x="167.125" y="167.297852"/>
</g>
<path style=" stroke:none;fill-rule:nonzero;fill:rgb(100%,100%,100%);fill-opacity:1;" d="M 149.691406 123.714844 L 160.691406 123.714844 L 160.691406 139.714844 L 149.691406 139.714844 Z M 149.691406 123.714844 "/>
<g style="fill:rgb(100%,0%,0%);fill-opacity:1;">
  <use xlink:href="#glyph0-3" x="149.691406" y="136.09082"/>
</g>
<path style=" stroke:none;fill-rule:nonzero;fill:rgb(100%,100%,100%);fill-opacity:1;" d="M 176.558594 186.128906 L 187.558594 186.128906 L 187.558594 202.128906 L 176.558594 202.128906 Z M 176.558594 186.128906 "/>
<g style="fill:rgb(100%,0%,0%);fill-opacity:1;">
  <use xlink:href="#glyph0-3" x="176.558594" y="198.504883"/>
</g>
<path style="fill:none;stroke-width:1.2;stroke-linecap:butt;stroke-linejoin:miter;stroke:rgb(0%,0%,0%);stroke-opacity:1;stroke-miterlimit:10;" d="M 202.335938 152.488281 L 226.972656 174.300781 "/>
<path style="fill:none;stroke-width:1.2;stroke-linecap:butt;stroke-linejoin:miter;stroke:rgb(0%,0%,0%);stroke-opacity:1;stroke-miterlimit:10;" d="M 209.929688 148.875 L 229.640625 166.320312 "/>
<path style="fill:none;stroke-width:1.2;stroke-linecap:butt;stroke-linejoin:miter;stroke:rgb(0%,0%,0%);stroke-opacity:1;stroke-miterlimit:10;" d="M 208.902344 120.246094 L 202.335938 152.488281 "/>
<path style="fill:none;stroke-width:1.2;stroke-linecap:butt;stroke-linejoin:miter;stroke:rgb(0%,0%,0%);stroke-opacity:1;stroke-miterlimit:10;" d="M 226.972656 174.300781 L 258.179688 163.867188 "/>
<path style="fill:none;stroke-width:1.2;stroke-linecap:butt;stroke-linejoin:miter;stroke:rgb(0%,0%,0%);stroke-opacity:1;stroke-miterlimit:10;" d="M 258.179688 163.867188 L 264.75 131.625 "/>
<path style="fill:none;stroke-width:1.2;stroke-linecap:butt;stroke-linejoin:miter;stroke:rgb(0%,0%,0%);stroke-opacity:1;stroke-miterlimit:10;" d="M 251.25 159.097656 L 256.507812 133.304688 "/>
<path style="fill:none;stroke-width:1.2;stroke-linecap:butt;stroke-linejoin:miter;stroke:rgb(0%,0%,0%);stroke-opacity:1;stroke-miterlimit:10;" d="M 264.75 131.625 L 240.109375 109.8125 "/>
<path style="fill:none;stroke-width:1.2;stroke-linecap:butt;stroke-linejoin:miter;stroke:rgb(0%,0%,0%);stroke-opacity:1;stroke-miterlimit:10;" d="M 240.109375 109.8125 L 208.902344 120.246094 "/>
<path style="fill:none;stroke-width:1.2;stroke-linecap:butt;stroke-linejoin:miter;stroke:rgb(0%,0%,0%);stroke-opacity:1;stroke-miterlimit:10;" d="M 239.445312 118.199219 L 214.476562 126.546875 "/>
</g>
</svg>

<svg xmlns="http://www.w3.org/2000/svg" xmlns:xlink="http://www.w3.org/1999/xlink" width="300pt" height="300pt" viewBox="0 0 300 300"><defs><symbol overflow="visible"><path d="M.64 2.297v-11.47h6.5v11.47zm.735-.72h5.047V-8.436H1.375zm0 0"/></symbol><symbol overflow="visible" id="a"><path d="M1.28-9.484H3l4.203 7.937v-7.937h1.25V0H6.72L2.515-7.922V0H1.28zm0 0"/></symbol><symbol overflow="visible" id="b"><path d="M6.953-9.172v1.25c-.48-.226-.937-.398-1.375-.516-.43-.113-.844-.17-1.25-.17-.7 0-1.242.135-1.625.405-.375.273-.562.656-.562 1.156 0 .418.126.734.376.953.257.21.738.383 1.437.516l.78.156c.947.188 1.65.512 2.11.97.458.46.688 1.073.688 1.843 0 .92-.307 1.618-.92 2.094-.618.47-1.524.704-2.72.704-.45 0-.93-.055-1.437-.157C1.953-.07 1.43-.222.89-.42v-1.312c.52.293 1.032.51 1.532.656.5.148.988.22 1.47.22.737 0 1.303-.142 1.702-.423.394-.29.593-.704.593-1.236 0-.468-.148-.832-.437-1.093-.28-.257-.746-.456-1.39-.593l-.782-.156c-.96-.187-1.652-.484-2.078-.89-.43-.406-.64-.97-.64-1.688 0-.843.288-1.503.874-1.984.594-.488 1.41-.734 2.454-.734.437 0 .882.043 1.343.125.47.085.943.202 1.423.358zm0 0"/></symbol><symbol overflow="visible" id="c"><path d="M5.125-8.61c-.938 0-1.684.352-2.234 1.047-.542.688-.812 1.633-.812 2.83 0 1.198.27 2.147.813 2.842.55.687 1.297 1.03 2.235 1.03.926 0 1.66-.343 2.203-1.03.55-.696.828-1.645.828-2.844 0-1.196-.277-2.14-.828-2.829-.543-.695-1.277-1.046-2.203-1.046zm0-1.046c1.32 0 2.38.45 3.172 1.344.8.898 1.203 2.09 1.203 3.578 0 1.5-.402 2.7-1.203 3.593C7.504-.255 6.445.186 5.125.186c-1.336 0-2.402-.44-3.203-1.328C1.13-2.036.734-3.235.734-4.735c0-1.49.395-2.68 1.188-3.579.8-.894 1.867-1.343 3.203-1.343zm0 0"/></symbol></defs><g><path fill="#fff" d="M0 0h300v300H0z"/><path d="M49.945 83.97l3.56 16.06" stroke-width="1.2" stroke="#000" stroke-miterlimit="10" fill="none"/><path d="M53.504 100.03l3.555 16.064M57.06 116.094l-10.904 12.32" stroke-width="1.2" stroke="#00f" stroke-miterlimit="10" fill="none"/><path d="M46.156 128.414l-10.906 12.32M87.234 129.227l-15.086-6.567" stroke-width="1.2" stroke="#000" stroke-miterlimit="10" fill="none"/><path d="M72.148 122.66l-15.09-6.566" stroke-width="1.2" stroke="#00f" stroke-miterlimit="10" fill="none"/><path d="M52.06 108.094h10v16h-10zm0 0" fill="#fff"/><use xlink:href="#a" x="52.059" y="120.47" fill="#00f"/><path d="M35.25 140.734l16.695 28.356" stroke-width="1.2" stroke="#000" stroke-miterlimit="10" fill="none"/><path d="M84.07 161.977l-33.382 1.445 2.51 11.34zm0 0"/><path d="M84.07 161.977l3.164-32.75M84.07 161.977l-6.566 32.246M115.277 151.547l-31.207 10.43M77.504 194.223l24.637 21.808M102.14 216.03L133.35 205.6M133.348 205.598l3.285-16.12" stroke-width="1.2" stroke="#000" stroke-miterlimit="10" fill="none"/><path d="M136.633 189.477l3.285-16.122M139.918 173.355l-12.32-10.906" stroke-width="1.2" stroke="#00f" stroke-miterlimit="10" fill="none"/><path d="M127.598 162.45l-12.32-10.903" stroke-width="1.2" stroke="#000" stroke-miterlimit="10" fill="none"/><path d="M139.918 173.355l15.605-5.214" stroke-width="1.2" stroke="#00f" stroke-miterlimit="10" fill="none"/><path d="M155.523 168.14l15.602-5.218" stroke-width="1.2" stroke="#cc0" stroke-miterlimit="10" fill="none"/><path d="M134.918 165.355h10v16h-10zm0 0" fill="#fff"/><use xlink:href="#a" x="134.918" y="177.731" fill="#00f"/><path d="M174.797 161.695l-5.215-15.605" stroke-width="1.2" stroke="#cc0" stroke-miterlimit="10" fill="none"/><path d="M169.582 146.09l-5.22-15.602" stroke-width="1.2" stroke="#f00" stroke-miterlimit="10" fill="none"/><path d="M167.453 164.148l-5.215-15.6" stroke-width="1.2" stroke="#cc0" stroke-miterlimit="10" fill="none"/><path d="M162.238 148.547l-5.215-15.606" stroke-width="1.2" stroke="#f00" stroke-miterlimit="10" fill="none"/><path d="M167.453 164.148l5.22 15.606" stroke-width="1.2" stroke="#cc0" stroke-miterlimit="10" fill="none"/><path d="M172.672 179.754l5.215 15.605" stroke-width="1.2" stroke="#f00" stroke-miterlimit="10" fill="none"/><path d="M174.797 161.695l5.22 15.606" stroke-width="1.2" stroke="#cc0" stroke-miterlimit="10" fill="none"/><path d="M180.016 177.3l5.214 15.602" stroke-width="1.2" stroke="#f00" stroke-miterlimit="10" fill="none"/><path d="M171.125 162.922l15.605-5.215" stroke-width="1.2" stroke="#cc0" stroke-miterlimit="10" fill="none"/><path d="M186.73 157.707l15.606-5.22" stroke-width="1.2" stroke="#000" stroke-miterlimit="10" fill="none"/><path d="M167.125 154.922h9v16h-9zm0 0" fill="#fff"/><use xlink:href="#b" x="167.125" y="167.298" fill="#cc0"/><path d="M149.69 123.715h11v16h-11zm0 0" fill="#fff"/><use xlink:href="#c" x="149.691" y="136.091" fill="#f00"/><path d="M176.56 186.13h11v16h-11zm0 0" fill="#fff"/><use xlink:href="#c" x="176.559" y="198.505" fill="#f00"/><path d="M202.336 152.488l24.637 21.813M209.93 148.875l19.71 17.445M208.902 120.246l-6.566 32.242M226.973 174.3l31.207-10.433M258.18 163.867l6.57-32.242M251.25 159.098l5.258-25.793M264.75 131.625l-24.64-21.813M240.11 109.813L208.9 120.245M239.445 118.2l-24.968 8.347" stroke-width="1.2" stroke="#000" stroke-miterlimit="10" fill="none"/></g></svg>
